icons/mobile/24/svg/import-data-24.svg

<svg width="24" height="24" viewBox="0 0 24 24" fill="none" xmlns="http://www.w3.org/2000/svg">
<path d="M9.62988 3.36586C12.5299 2.87686 15.5193 2.88072 18.4053 3.37172C19.9091 3.6278 20.9999 4.9249 21 6.45473V18.5446C21 20.0745 19.9091 21.3715 18.4062 21.6276C16.9553 21.8746 15.472 21.9997 14 21.9997C12.528 21.9997 11.0457 21.8746 9.59473 21.6276C8.0909 21.3714 7 20.0745 7 18.5446V15.4997H8.75V18.5446C8.75 19.2185 9.22785 19.7909 9.8877 19.903C12.5957 20.362 15.4033 20.362 18.1123 19.903C18.7712 19.7909 19.25 19.2195 19.25 18.5446V6.45473C19.2499 5.78094 18.772 5.20944 18.1123 5.09731C16.7583 4.86731 15.375 4.74965 14 4.74965C12.64 4.74965 11.2669 4.86542 9.9209 5.09242C9.24305 5.20648 8.75009 5.77889 8.75 6.45375V9.49965H7V6.45375C7.00009 4.92187 8.106 3.62289 9.62988 3.36586Z" fill="black"/>
<path d="M11.999 9.24965C11.9993 8.58188 12.8074 8.24844 13.2793 8.72035L16.5283 11.9694C16.8209 12.2623 16.821 12.737 16.5283 13.0299L13.2803 16.278C12.8083 16.751 12 16.4157 12 15.7477L11.999 15.7467V13.3747H3.875C3.392 13.3747 3 12.9827 3 12.4997C3.00017 12.0168 3.39211 11.6247 3.875 11.6247H11.999V9.24965Z" fill="black"/>
</svg>

<!-- This Source Code Form is subject to the terms of the Mozilla Public
   - License, v. 2.0. If a copy of the MPL was not distributed with this
   - file, You can obtain one at http://mozilla.org/MPL/2.0/. -->
<svg xmlns="http://www.w3.org/2000/svg" width="24" height="24" fill="none" viewBox="0 0 24 24">
    <path fill="#000" d="M9.63 3.366c2.9-.49 5.89-.485 8.775.006A3.116 3.116 0 0 1 21 6.455v12.09c0 1.53-1.09 2.826-2.594 3.083a26.3 26.3 0 0 1-8.811 0A3.116 3.116 0 0 1 7 18.545V15.5h1.75v3.045a1.37 1.37 0 0 0 1.138 1.358 24.7 24.7 0 0 0 8.224 0 1.37 1.37 0 0 0 1.138-1.358V6.455a1.37 1.37 0 0 0-1.138-1.358A24.6 24.6 0 0 0 14 4.75c-1.36 0-2.733.115-4.08.342a1.39 1.39 0 0 0-1.17 1.362V9.5H7V6.454a3.13 3.13 0 0 1 2.63-3.088" />
    <path fill="#000" d="M11.999 9.25a.75.75 0 0 1 1.28-.53l3.25 3.25a.75.75 0 0 1 0 1.06l-3.249 3.248a.75.75 0 0 1-1.28-.53l-.001-.001v-2.372H3.875a.875.875 0 0 1 0-1.75h8.124z" />
</svg>
